assets/images/me.svg

<svg enable-background="new 0 0 30 30" viewBox="0 0 30 30" xmlns="http://www.w3.org/2000/svg"><g fill="#fff"><path d="m15 16.6c7.2 0 13 5.4 13.7 12.2h-27.4c.7-6.9 6.5-12.2 13.7-12.2m0-1.3c-8.3 0-15 6.6-15 14.7h30c0-8.1-6.7-14.7-15-14.7z"/><path d="m15 1.3c3 0 5.4 2.4 5.4 5.4s-2.4 5.3-5.4 5.3-5.4-2.4-5.4-5.4 2.4-5.3 5.4-5.3m0-1.3c-3.7 0-6.6 3-6.6 6.6s3 6.6 6.6 6.6 6.6-3 6.6-6.6-2.9-6.6-6.6-6.6z"/></g></svg>

<?xml version="1.0" encoding="utf-8"?>
<!-- Generator: Adobe Illustrator 24.2.0, SVG Export Plug-In . SVG Version: 6.00 Build 0)  -->
<svg version="1.1" id="Layer_1" xmlns="http://www.w3.org/2000/svg" xmlns:xlink="http://www.w3.org/1999/xlink" x="0px" y="0px"
	 viewBox="0 0 30 30" style="enable-background:new 0 0 30 30;" xml:space="preserve">
<style type="text/css">
	.st0{fill:#FFFFFF;}
</style>
<g>
	<path class="st0" d="M15,16.6c7.2,0,13,5.4,13.7,12.2H1.3C2,21.9,7.8,16.6,15,16.6 M15,15.3C6.7,15.3,0,21.9,0,30h30
		C30,21.9,23.3,15.3,15,15.3L15,15.3z"/>
</g>
<g>
	<path class="st0" d="M15,1.3c3,0,5.4,2.4,5.4,5.4S18,12,15,12S9.6,9.6,9.6,6.6S12,1.3,15,1.3 M15,0c-3.7,0-6.6,3-6.6,6.6
		s3,6.6,6.6,6.6s6.6-3,6.6-6.6S18.7,0,15,0L15,0z"/>
</g>
</svg>
